X: 13
T:The Seventh Horse
M:3/4
L:1/8
Q:180
C:Words and Music by Catherine Faber, (c) 1993
A:Filk
D:on the tape, "Bin There, Dun That"
W:Chorus:
W:Count the white horses you meet on the way.
W:Count the white horses, child, day after day.
W:Count the white horses till seven; if you
W:Wish on the seventh, your wish will come true.
W:Verse:
W:I counted them up as the lullaby said;
W:One by the mayor's house, one by the shed,
W:One in the lane . . . when the seventh I'd see
W:I'd wish on the seventh a hero to be.
K:Bb
"Chorus:" D3 E F2|D2 C2 B,2|D2 E3 F|D6|
D3 E F2|D2 E2 F2|B3 A2 F|G6|
A3 B A2|A2 G2 F2|G A3 B2|F6|
E2 F3 G|F B3 d2|c3 B A2|B6|
"Verse:" z4 F,2|D2 E2 F2|D4 C B,|D E3 F2|D6|
D4 E F|D E3 F2|B2 A3 F|G6|
A2 B3 A|A4 G F|E E3 E2|D4 D2|
E2 E3 E|D B,3 D|E2 F2 G2 F6||
